icon-themes/sifr_svg/cmd/lc_fontwork.svg

<svg viewBox="0 0 24 24" xmlns="http://www.w3.org/2000/svg"><path d="m4 2c-1.108 0-2 .892-2 2v16c0 1.108.892 2 2 2h16c1.108 0 2-.892 2-2v-16c0-1.108-.892-2-2-2zm0 2h16v16h-16zm5 3v2h4c.552285 0 1 .447715 1 1v1h-4c-1.656854 0-3 1.343146-3 3s1.343146 3 3 3h6v-7c0-1.6568542-1.343146-3-3-3zm1 6h4v2h-4c-.552284 0-1-.447715-1-1s.447716-1 1-1z" fill="#555753"/></svg>

<svg xmlns="http://www.w3.org/2000/svg" viewBox="0 0 24 24">
  <path
     style="fill:#555753"
     d="M 4 2 C 2.892 2 2 2.892 2 4 L 2 20 C 2 21.108 2.892 22 4 22 L 20 22 C 21.108 22 22 21.108 22 20 L 22 4 C 22 2.892 21.108 2 20 2 L 4 2 z M 4 4 L 20 4 L 20 20 L 4 20 L 4 4 z M 9 7 L 9 9 L 13 9 C 13.552285 9 14 9.447715 14 10 L 14 11 L 10 11 C 8.343146 11 7 12.343146 7 14 C 7 15.656854 8.343146 17 10 17 L 16 17 L 16 10 C 16 8.3431458 14.656854 7 13 7 L 9 7 z M 10 13 L 14 13 L 14 15 L 10 15 C 9.447716 15 9 14.552285 9 14 C 9 13.447715 9.447716 13 10 13 z "
     />
</svg>
